X: 35445
T: Roving Lads Of Dava, The
R: jig
M: 6/8
K: Gmajor
f||gba agf|edc ~B3|dcB A2B|cBA GBd|
gba agf|edc ~B3|dcA DFA|1 AGF GBd:|2 AGF GBc||
d2B g2 B|b3 b2a|gba gfe|dBB B2c|
d2 B g2B|b3 b2 a|gfe deg|1 aba gBc:|2 aba g2||

